X:1
T:Bayerische Polka  FCBb
T:Hanny Christen. Bd.II  St. Gallen II, GraubÃ¼nden, Tessin. S.325 (pk02133) orig. F,C,Bb
T: GraubÃ¼nden. Gla Genua, Sent. S.299-329. Ãœberliefert vermutlich durch Nott Caviezel
O:Switzerland
%%MIDI program 21
P:ABAC
R:polka
M:2/4
L:1/16
K:F %%MIDI gchordon
=Bc [P:A] |: "F"dcAF dcAF | "C7"EGBe g3f | e2G2 B2AG | "F"FAcf ac=Bc | dcAF dcAF | "C7"EGBe g3f | 
e2G2 B2AG |1 "F"F2A2 F2=Bc :|2 "F"F2A2 F2Gc [P:B] |: [K:C] "G7"B2G2 g3B | "C"c2ce (a4 | "G7"a)gBd !>!f2ed | !>!"C"c2ed cBAG | 
"G7"B2G2 g3B | "C"c2ce ("G7"a4 | a)gBd f2ed |1 "C"c2e2 c2Gc :|2 "C"c2e2 c2"_>Teil A"z2 [P:C] |: [K:Bb] ("Bb"d4 d)^cde | 
f2B2 d2cB | "F7"A2ce a2ec | "Bb"Bcde fgab | (d4 d)^cde | f2B2 d2cB | "F7"ABcd efga | "Bb"b2b2 b2z2 :| 
% W:Parts: ABAC
% pk02133  

